img/icons/this/contacts/contacts-house.svg

<svg width="48" height="44" viewBox="0 0 48 44" fill="none" xmlns="http://www.w3.org/2000/svg">
<path fill-rule="evenodd" clip-rule="evenodd" d="M5.25 39.1875V18.875H8.375V39.1875C8.375 39.6019 8.53962 39.9993 8.83265 40.2924C9.12567 40.5854 9.5231 40.75 9.9375 40.75H38.0625C38.4769 40.75 38.8743 40.5854 39.1674 40.2924C39.4604 39.9993 39.625 39.6019 39.625 39.1875V18.875H42.75V39.1875C42.75 40.4307 42.2561 41.623 41.3771 42.5021C40.498 43.3811 39.3057 43.875 38.0625 43.875H9.9375C8.6943 43.875 7.50201 43.3811 6.62294 42.5021C5.74386 41.623 5.25 40.4307 5.25 39.1875ZM39.625 4.8125V15.75L33.375 9.5V4.8125C33.375 4.3981 33.5396 4.00067 33.8326 3.70765C34.1257 3.41462 34.5231 3.25 34.9375 3.25H38.0625C38.4769 3.25 38.8743 3.41462 39.1674 3.70765C39.4604 4.00067 39.625 4.3981 39.625 4.8125Z" fill="#45594F"/>
<path fill-rule="evenodd" clip-rule="evenodd" d="M21.7906 1.68693C22.3767 1.10108 23.1714 0.771973 24 0.771973C24.8287 0.771973 25.6234 1.10108 26.2094 1.68693L46.9813 22.4557C47.2747 22.7491 47.4395 23.147 47.4395 23.5619C47.4395 23.9769 47.2747 24.3748 46.9813 24.6682C46.6879 24.9616 46.2899 25.1264 45.875 25.1264C45.4601 25.1264 45.0622 24.9616 44.7688 24.6682L24 3.89631L3.23127 24.6682C2.93787 24.9616 2.53994 25.1264 2.12502 25.1264C1.7101 25.1264 1.31217 24.9616 1.01877 24.6682C0.725375 24.3748 0.560547 23.9769 0.560547 23.5619C0.560547 23.147 0.725375 22.7491 1.01877 22.4557L21.7906 1.68693Z" fill="#45594F"/>
</svg>

<svg width="48" height="44" fill="none" xmlns="http://www.w3.org/2000/svg"><path fill-rule="evenodd" clip-rule="evenodd" d="M5.25 39.188V18.875h3.125v20.313a1.563 1.563 0 001.563 1.562h28.124a1.563 1.563 0 001.563-1.563V18.875h3.125v20.313a4.688 4.688 0 01-4.688 4.687H9.939a4.688 4.688 0 01-4.688-4.688zM39.625 4.812V15.75l-6.25-6.25V4.812a1.563 1.563 0 011.563-1.562h3.124a1.563 1.563 0 011.563 1.563z" fill="#45594F"/><path fill-rule="evenodd" clip-rule="evenodd" d="M21.79 1.687a3.125 3.125 0 014.42 0l20.77 20.769a1.564 1.564 0 11-2.212 2.212L24 3.896 3.231 24.668a1.564 1.564 0 01-2.212-2.212L21.79 1.686z" fill="#45594F"/></svg>
